dhis-2/dhis-support/dhis-support-system/src/main/resources/SVGs/clinical_f_outline.svg

<svg width="48" height="48" viewBox="0 0 48 48" fill="none" xmlns="http://www.w3.org/2000/svg">
<path d="M24.0288 4.97266C22.6288 4.97416 21.4768 6.07414 21.4098 7.47262H19.3118C18.7228 7.47262 18.2498 7.94782 18.2498 8.53701V8.77531H11.8609C10.8319 8.77531 10.002 9.6031 10.002 10.6329V41.1675C10.002 42.1975 10.8319 43.0265 11.8609 43.0265H36.1386C37.1676 43.0265 37.9956 42.1975 37.9956 41.1675V10.6329C37.9956 9.6031 37.1676 8.77531 36.1386 8.77531H29.7477V8.53701C29.7477 7.94782 29.2747 7.47262 28.6857 7.47262H26.6477C26.5817 6.07414 25.4288 4.97416 24.0288 4.97266ZM24.0308 5.48435C24.5944 5.48435 25.1349 5.70823 25.5334 6.10674C25.9319 6.50525 26.1558 7.04574 26.1558 7.60932C26.1558 7.88838 26.1008 8.1647 25.994 8.42252C25.8872 8.68033 25.7307 8.91458 25.5334 9.11191C25.336 9.30923 25.1018 9.46575 24.844 9.57254C24.5862 9.67933 24.3098 9.7343 24.0308 9.7343C23.4672 9.7343 22.9267 9.51042 22.5282 9.11191C22.1297 8.7134 21.9058 8.1729 21.9058 7.60932C21.9058 7.04574 22.1297 6.50525 22.5282 6.10674C22.9267 5.70823 23.4672 5.48435 24.0308 5.48435ZM19.3068 7.98232H21.4158C21.5055 8.6122 21.8193 9.18864 22.2996 9.60588C22.7799 10.0231 23.3945 10.2532 24.0308 10.2539C24.667 10.2532 25.2817 10.0231 25.762 9.60588C26.2423 9.18864 26.5561 8.6122 26.6457 7.98232H28.6927C28.9927 7.98232 29.2337 8.22342 29.2337 8.52331V8.98821V9.6347V11.3029H18.7658V9.6347V8.98821V8.52331C18.7658 8.22342 19.0068 7.98232 19.3068 7.98232ZM12.5179 9.289H16.8299H18.2498L18.2519 11.8159H19.3138H21.7788H26.2208H28.6877H29.7497L29.7477 9.289H30.7247L35.6716 9.2948C37.3096 9.2968 37.4746 10.2429 37.4746 11.1619L37.4766 40.9705C37.4766 41.8895 36.9576 42.5115 35.6906 42.5115H12.1929C11.2739 42.5115 10.5179 41.9055 10.5179 40.9855V10.8459C10.5179 9.7231 11.0709 9.289 12.5179 9.289ZM17.1369 13.5348C17.0089 13.5378 16.8829 13.6368 16.8869 13.8258V16.1148H14.5959C14.2029 16.1278 14.1769 16.6208 14.5979 16.6288H16.8869V18.9178C16.9119 19.3688 17.4029 19.3678 17.3999 18.9158V16.6288H19.6888C20.1268 16.6208 20.0958 16.1218 19.6878 16.1148H17.3999V13.8238C17.3959 13.6248 17.2649 13.5318 17.1369 13.5348ZM13.9379 24.8607L13.9389 25.3747H34.0617L34.0607 24.8607H13.9379ZM13.9379 28.8607L13.9389 29.3746H34.0617L34.0607 28.8607H13.9379ZM13.9379 32.8606L13.9389 33.3746H34.0617L34.0607 32.8606H13.9379ZM13.9379 36.8606L13.9389 37.3745H26.6247L26.6227 36.8606H13.9379Z" fill="#333333"/>
</svg>

<?xml version="1.0" encoding="UTF-8" standalone="no"?>
<!-- Created with Inkscape (http://www.inkscape.org/) -->
<svg id="svg8" xmlns:rdf="http://www.w3.org/1999/02/22-rdf-syntax-ns#" xmlns="http://www.w3.org/2000/svg" xmlns:osb="http://www.openswatchbook.org/uri/2009/osb" height="48" width="48" version="1.1" xmlns:cc="http://creativecommons.org/ns#" viewBox="0 0 12.7 12.7" xmlns:dc="http://purl.org/dc/elements/1.1/">
 <title id="title4753">UIO-icon</title>
 <metadata id="metadata5">
  <rdf:RDF>
   <cc:Work rdf:about="">
    <dc:format>image/svg+xml</dc:format>
    <dc:type rdf:resource="http://purl.org/dc/dcmitype/StillImage"/>
    <dc:title>UIO-icon</dc:title>
    <dc:creator>
     <cc:Agent>
      <dc:title>Joaquín Urbano</dc:title>
     </cc:Agent>
    </dc:creator>
    <dc:rights>
     <cc:Agent>
      <dc:title>GPL</dc:title>
     </cc:Agent>
    </dc:rights>
   </cc:Work>
  </rdf:RDF>
 </metadata>
 <g id="layer1" transform="translate(0,-284.3)" fill="#333">
  <path id="rect858" d="m24.029 4.9727c-1.4 0.0015-2.552 1.1015-2.619 2.5h-2.098c-0.589 0-1.062 0.4752-1.062 1.0644v0.2383h-6.389c-1.029 0-1.859 0.8278-1.859 1.8576v30.535c0 1.03 0.83 1.859 1.859 1.859h24.278c1.029 0 1.857-0.829 1.857-1.859v-30.535c0-1.0298-0.828-1.8576-1.857-1.8576h-6.391v-0.2383c0-0.5892-0.473-1.0644-1.062-1.0644h-2.038c-0.066-1.3985-1.219-2.4985-2.619-2.5zm0.002 0.5117a2.125 2.125 0 0 1 2.125 2.125 2.125 2.125 0 0 1 -2.125 2.125 2.125 2.125 0 0 1 -2.125 -2.125 2.125 2.125 0 0 1 2.125 -2.125zm-4.724 2.498h2.109a2.6443 2.6443 0 0 0 2.615 2.2716 2.6443 2.6443 0 0 0 2.615 -2.2716h2.047c0.3 0 0.541 0.2411 0.541 0.541v0.4649 0.6465 1.6682h-10.468v-1.6682-0.6465-0.4649c0-0.2999 0.241-0.541 0.541-0.541zm-6.789 1.3067h4.312 1.42l0.002 2.5269h1.062 2.465 4.442 2.467 1.062l-0.002-2.5269h0.977l4.947 0.0058c1.638 0.002 1.803 0.9481 1.803 1.8671l0.002 29.809c0 0.919-0.519 1.541-1.786 1.541h-23.498c-0.919 0-1.675-0.606-1.675-1.526v-30.14c0-1.1228 0.553-1.5569 2-1.5569zm4.619 4.2459c-0.128 0.003-0.254 0.102-0.25 0.291v2.289h-2.291c-0.393 0.013-0.419 0.506 0.002 0.514h2.289v2.289c0.025 0.451 0.516 0.45 0.513-0.002v-2.287h2.289c0.438-0.008 0.407-0.507-0.001-0.514h-2.288v-2.291c-0.004-0.199-0.135-0.292-0.263-0.289zm-3.199 11.326l0.001 0.514h20.123l-0.001-0.514h-20.123zm0 4l0.001 0.514h20.123l-0.001-0.514h-20.123zm0 4l0.001 0.514h20.123l-0.001-0.514h-20.123zm0 4l0.001 0.514h12.686l-0.002-0.514h-12.685z" transform="matrix(.26458 0 0 .26458 0 284.3)"/>
 </g>
</svg>
